images/50569356.svg

<?xml version="1.0" encoding="UTF-8"?>
<svg xmlns="http://www.w3.org/2000/svg" xmlns:xlink="http://www.w3.org/1999/xlink" width="300pt" height="300pt" viewBox="0 0 300 300" version="1.1">
<defs>
<g>
<symbol overflow="visible" id="glyph0-0">
<path style="stroke:none;" d="M 0.453125 1.59375 L 0.453125 -6.34375 L 4.953125 -6.34375 L 4.953125 1.59375 Z M 0.953125 1.09375 L 4.453125 1.09375 L 4.453125 -5.84375 L 0.953125 -5.84375 Z M 0.953125 1.09375 "/>
</symbol>
<symbol overflow="visible" id="glyph0-1">
<path style="stroke:none;" d="M 5.796875 -6.0625 L 5.796875 -5.125 C 5.492188 -5.394531 5.171875 -5.597656 4.828125 -5.734375 C 4.492188 -5.878906 4.140625 -5.953125 3.765625 -5.953125 C 3.015625 -5.953125 2.4375 -5.722656 2.03125 -5.265625 C 1.632812 -4.804688 1.4375 -4.144531 1.4375 -3.28125 C 1.4375 -2.414062 1.632812 -1.753906 2.03125 -1.296875 C 2.4375 -0.835938 3.015625 -0.609375 3.765625 -0.609375 C 4.140625 -0.609375 4.492188 -0.675781 4.828125 -0.8125 C 5.171875 -0.945312 5.492188 -1.15625 5.796875 -1.4375 L 5.796875 -0.5 C 5.484375 -0.289062 5.15625 -0.132812 4.8125 -0.03125 C 4.46875 0.0703125 4.097656 0.125 3.703125 0.125 C 2.710938 0.125 1.929688 -0.175781 1.359375 -0.78125 C 0.785156 -1.394531 0.5 -2.226562 0.5 -3.28125 C 0.5 -4.332031 0.785156 -5.160156 1.359375 -5.765625 C 1.929688 -6.378906 2.710938 -6.6875 3.703125 -6.6875 C 4.097656 -6.6875 4.46875 -6.632812 4.8125 -6.53125 C 5.164062 -6.425781 5.492188 -6.269531 5.796875 -6.0625 Z M 5.796875 -6.0625 "/>
</symbol>
<symbol overflow="visible" id="glyph0-2">
<path style="stroke:none;" d="M 0.84375 -6.84375 L 1.65625 -6.84375 L 1.65625 0 L 0.84375 0 Z M 0.84375 -6.84375 "/>
</symbol>
<symbol overflow="visible" id="glyph0-3">
<path style="stroke:none;" d="M 0.890625 -6.5625 L 2.078125 -6.5625 L 4.984375 -1.078125 L 4.984375 -6.5625 L 5.84375 -6.5625 L 5.84375 0 L 4.65625 0 L 1.75 -5.484375 L 1.75 0 L 0.890625 0 Z M 0.890625 -6.5625 "/>
</symbol>
<symbol overflow="visible" id="glyph0-4">
<path style="stroke:none;" d="M 0.890625 -6.5625 L 1.765625 -6.5625 L 1.765625 -3.875 L 5 -3.875 L 5 -6.5625 L 5.890625 -6.5625 L 5.890625 0 L 5 0 L 5 -3.125 L 1.765625 -3.125 L 1.765625 0 L 0.890625 0 Z M 0.890625 -6.5625 "/>
</symbol>
<symbol overflow="visible" id="glyph0-5">
<path style="stroke:none;" d="M 3.546875 -5.953125 C 2.898438 -5.953125 2.382812 -5.710938 2 -5.234375 C 1.625 -4.753906 1.4375 -4.101562 1.4375 -3.28125 C 1.4375 -2.445312 1.625 -1.789062 2 -1.3125 C 2.382812 -0.832031 2.898438 -0.59375 3.546875 -0.59375 C 4.191406 -0.59375 4.703125 -0.832031 5.078125 -1.3125 C 5.453125 -1.789062 5.640625 -2.445312 5.640625 -3.28125 C 5.640625 -4.101562 5.453125 -4.753906 5.078125 -5.234375 C 4.703125 -5.710938 4.191406 -5.953125 3.546875 -5.953125 Z M 3.546875 -6.6875 C 4.460938 -6.6875 5.195312 -6.375 5.75 -5.75 C 6.300781 -5.132812 6.578125 -4.3125 6.578125 -3.28125 C 6.578125 -2.238281 6.300781 -1.410156 5.75 -0.796875 C 5.195312 -0.179688 4.460938 0.125 3.546875 0.125 C 2.617188 0.125 1.878906 -0.179688 1.328125 -0.796875 C 0.773438 -1.410156 0.5 -2.238281 0.5 -3.28125 C 0.5 -4.3125 0.773438 -5.132812 1.328125 -5.75 C 1.878906 -6.375 2.617188 -6.6875 3.546875 -6.6875 Z M 3.546875 -6.6875 "/>
</symbol>
</g>
</defs>
<g id="surface16953">
<rect x="0" y="0" width="300" height="300" style="fill:rgb(100%,100%,100%);fill-opacity:1;stroke:none;"/>
<path style="fill:none;stroke-width:1.2;stroke-linecap:butt;stroke-linejoin:miter;stroke:rgb(0%,80%,0%);stroke-opacity:1;stroke-miterlimit:10;" d="M 35.25 160.546875 L 44.90625 156.082031 "/>
<path style="fill:none;stroke-width:1.2;stroke-linecap:butt;stroke-linejoin:miter;stroke:rgb(0%,0%,0%);stroke-opacity:1;stroke-miterlimit:10;" d="M 44.90625 156.082031 L 54.558594 151.617188 "/>
<path style=" stroke:none;fill-rule:nonzero;fill:rgb(100%,100%,100%);fill-opacity:1;" d="M 25.25 155.046875 L 35.25 155.046875 L 35.25 166.046875 L 25.25 166.046875 Z M 25.25 155.046875 "/>
<g style="fill:rgb(0%,80%,0%);fill-opacity:1;">
  <use xlink:href="#glyph0-1" x="25.25" y="163.709961"/>
  <use xlink:href="#glyph0-2" x="31.763672" y="163.709961"/>
</g>
<path style="fill:none;stroke-width:1.2;stroke-linecap:butt;stroke-linejoin:miter;stroke:rgb(0%,0%,0%);stroke-opacity:1;stroke-miterlimit:10;" d="M 54.558594 151.617188 L 56.480469 130.429688 "/>
<path style="fill:none;stroke-width:1.2;stroke-linecap:butt;stroke-linejoin:miter;stroke:rgb(0%,0%,0%);stroke-opacity:1;stroke-miterlimit:10;" d="M 59.738281 149.949219 L 61.273438 133 "/>
<path style="fill:none;stroke-width:1.2;stroke-linecap:butt;stroke-linejoin:miter;stroke:rgb(0%,0%,0%);stroke-opacity:1;stroke-miterlimit:10;" d="M 71.949219 163.875 L 54.558594 151.617188 "/>
<path style="fill:none;stroke-width:1.2;stroke-linecap:butt;stroke-linejoin:miter;stroke:rgb(0%,0%,0%);stroke-opacity:1;stroke-miterlimit:10;" d="M 56.480469 130.429688 L 75.789062 121.5 "/>
<path style="fill:none;stroke-width:1.2;stroke-linecap:butt;stroke-linejoin:miter;stroke:rgb(0%,0%,0%);stroke-opacity:1;stroke-miterlimit:10;" d="M 75.789062 121.5 L 93.179688 133.757812 "/>
<path style="fill:none;stroke-width:1.2;stroke-linecap:butt;stroke-linejoin:miter;stroke:rgb(0%,0%,0%);stroke-opacity:1;stroke-miterlimit:10;" d="M 74.644531 126.816406 L 88.554688 136.621094 "/>
<path style="fill:none;stroke-width:1.2;stroke-linecap:butt;stroke-linejoin:miter;stroke:rgb(0%,0%,0%);stroke-opacity:1;stroke-miterlimit:10;" d="M 93.179688 133.757812 L 91.257812 154.945312 "/>
<path style="fill:none;stroke-width:1.2;stroke-linecap:butt;stroke-linejoin:miter;stroke:rgb(0%,0%,0%);stroke-opacity:1;stroke-miterlimit:10;" d="M 93.179688 133.757812 L 112.488281 124.828125 "/>
<path style="fill:none;stroke-width:1.2;stroke-linecap:butt;stroke-linejoin:miter;stroke:rgb(0%,0%,0%);stroke-opacity:1;stroke-miterlimit:10;" d="M 91.257812 154.945312 L 71.949219 163.875 "/>
<path style="fill:none;stroke-width:1.2;stroke-linecap:butt;stroke-linejoin:miter;stroke:rgb(0%,0%,0%);stroke-opacity:1;stroke-miterlimit:10;" d="M 87.226562 151.292969 L 71.777344 158.4375 "/>
<path style="fill:none;stroke-width:1.2;stroke-linecap:butt;stroke-linejoin:miter;stroke:rgb(0%,0%,0%);stroke-opacity:1;stroke-miterlimit:10;" d="M 112.488281 124.828125 L 114.550781 114.390625 "/>
<path style="fill:none;stroke-width:1.2;stroke-linecap:butt;stroke-linejoin:miter;stroke:rgb(0%,0%,100%);stroke-opacity:1;stroke-miterlimit:10;" d="M 114.550781 114.390625 L 116.613281 103.957031 "/>
<path style="fill:none;stroke-width:1.2;stroke-linecap:butt;stroke-linejoin:miter;stroke:rgb(0%,0%,0%);stroke-opacity:1;stroke-miterlimit:10;" d="M 117.8125 123.710938 L 119.460938 115.359375 "/>
<path style="fill:none;stroke-width:1.2;stroke-linecap:butt;stroke-linejoin:miter;stroke:rgb(0%,0%,100%);stroke-opacity:1;stroke-miterlimit:10;" d="M 119.460938 115.359375 L 121.113281 107.011719 "/>
<path style="fill:none;stroke-width:1.2;stroke-linecap:butt;stroke-linejoin:miter;stroke:rgb(0%,0%,0%);stroke-opacity:1;stroke-miterlimit:10;" d="M 131.0625 135.199219 L 112.488281 124.828125 "/>
<path style="fill:none;stroke-width:1.2;stroke-linecap:butt;stroke-linejoin:miter;stroke:rgb(0%,0%,100%);stroke-opacity:1;stroke-miterlimit:10;" d="M 116.613281 103.957031 L 137.738281 101.429688 "/>
<path style=" stroke:none;fill-rule:nonzero;fill:rgb(100%,100%,100%);fill-opacity:1;" d="M 113.613281 98.457031 L 120.613281 98.457031 L 120.613281 109.457031 L 113.613281 109.457031 Z M 113.613281 98.457031 "/>
<g style="fill:rgb(0%,0%,100%);fill-opacity:1;">
  <use xlink:href="#glyph0-3" x="113.613281" y="107.120117"/>
</g>
<path style="fill:none;stroke-width:1.2;stroke-linecap:butt;stroke-linejoin:miter;stroke:rgb(0%,0%,100%);stroke-opacity:1;stroke-miterlimit:10;" d="M 137.738281 101.429688 L 142.203125 111.082031 "/>
<path style="fill:none;stroke-width:1.2;stroke-linecap:butt;stroke-linejoin:miter;stroke:rgb(0%,0%,0%);stroke-opacity:1;stroke-miterlimit:10;" d="M 142.203125 111.082031 L 146.667969 120.738281 "/>
<path style=" stroke:none;fill-rule:nonzero;fill:rgb(100%,100%,100%);fill-opacity:1;" d="M 130.738281 95.929688 L 144.738281 95.929688 L 144.738281 106.929688 L 130.738281 106.929688 Z M 130.738281 95.929688 "/>
<g style="fill:rgb(0%,0%,100%);fill-opacity:1;">
  <use xlink:href="#glyph0-3" x="130.738281" y="104.592773"/>
  <use xlink:href="#glyph0-4" x="137.71582" y="104.592773"/>
</g>
<path style="fill:none;stroke-width:1.2;stroke-linecap:butt;stroke-linejoin:miter;stroke:rgb(0%,0%,0%);stroke-opacity:1;stroke-miterlimit:10;" d="M 146.667969 120.738281 L 131.0625 135.199219 "/>
<path style="fill:none;stroke-width:1.2;stroke-linecap:butt;stroke-linejoin:miter;stroke:rgb(0%,0%,0%);stroke-opacity:1;stroke-miterlimit:10;" d="M 141.707031 118.511719 L 129.222656 130.082031 "/>
<path style="fill:none;stroke-width:1.2;stroke-linecap:butt;stroke-linejoin:miter;stroke:rgb(0%,0%,0%);stroke-opacity:1;stroke-miterlimit:10;" d="M 146.667969 120.738281 L 167.539062 124.863281 "/>
<path style="fill:none;stroke-width:1.2;stroke-linecap:butt;stroke-linejoin:miter;stroke:rgb(0%,0%,0%);stroke-opacity:1;stroke-miterlimit:10;" d="M 131.0625 135.199219 L 133.589844 156.324219 "/>
<path style="fill:none;stroke-width:1.2;stroke-linecap:butt;stroke-linejoin:miter;stroke:rgb(0%,0%,0%);stroke-opacity:1;stroke-miterlimit:10;" d="M 133.589844 156.324219 L 125.074219 162.699219 "/>
<path style="fill:none;stroke-width:1.2;stroke-linecap:butt;stroke-linejoin:miter;stroke:rgb(0%,0%,100%);stroke-opacity:1;stroke-miterlimit:10;" d="M 125.074219 162.699219 L 116.558594 169.074219 "/>
<path style="fill:none;stroke-width:1.2;stroke-linecap:butt;stroke-linejoin:miter;stroke:rgb(0%,0%,0%);stroke-opacity:1;stroke-miterlimit:10;" d="M 134.886719 161.605469 L 128.074219 166.707031 "/>
<path style="fill:none;stroke-width:1.2;stroke-linecap:butt;stroke-linejoin:miter;stroke:rgb(0%,0%,100%);stroke-opacity:1;stroke-miterlimit:10;" d="M 128.074219 166.707031 L 121.261719 171.804688 "/>
<path style="fill:none;stroke-width:1.2;stroke-linecap:butt;stroke-linejoin:miter;stroke:rgb(0%,0%,0%);stroke-opacity:1;stroke-miterlimit:10;" d="M 153.148438 164.695312 L 133.589844 156.324219 "/>
<path style="fill:none;stroke-width:1.2;stroke-linecap:butt;stroke-linejoin:miter;stroke:rgb(0%,0%,100%);stroke-opacity:1;stroke-miterlimit:10;" d="M 116.558594 169.074219 L 117.820312 179.636719 "/>
<path style="fill:none;stroke-width:1.2;stroke-linecap:butt;stroke-linejoin:miter;stroke:rgb(0%,0%,0%);stroke-opacity:1;stroke-miterlimit:10;" d="M 117.820312 179.636719 L 119.085938 190.199219 "/>
<path style=" stroke:none;fill-rule:nonzero;fill:rgb(100%,100%,100%);fill-opacity:1;" d="M 113.558594 163.574219 L 120.558594 163.574219 L 120.558594 174.574219 L 113.558594 174.574219 Z M 113.558594 163.574219 "/>
<g style="fill:rgb(0%,0%,100%);fill-opacity:1;">
  <use xlink:href="#glyph0-3" x="113.558594" y="172.237305"/>
</g>
<path style="fill:none;stroke-width:1.2;stroke-linecap:butt;stroke-linejoin:miter;stroke:rgb(0%,0%,0%);stroke-opacity:1;stroke-miterlimit:10;" d="M 119.085938 190.199219 L 128.863281 194.382812 "/>
<path style="fill:none;stroke-width:1.2;stroke-linecap:butt;stroke-linejoin:miter;stroke:rgb(0%,0%,100%);stroke-opacity:1;stroke-miterlimit:10;" d="M 128.863281 194.382812 L 138.644531 198.570312 "/>
<path style="fill:none;stroke-width:1.2;stroke-linecap:butt;stroke-linejoin:miter;stroke:rgb(0%,0%,0%);stroke-opacity:1;stroke-miterlimit:10;" d="M 123.011719 186.433594 L 130.835938 189.78125 "/>
<path style="fill:none;stroke-width:1.2;stroke-linecap:butt;stroke-linejoin:miter;stroke:rgb(0%,0%,100%);stroke-opacity:1;stroke-miterlimit:10;" d="M 130.835938 189.78125 L 138.65625 193.132812 "/>
<path style="fill:none;stroke-width:1.2;stroke-linecap:butt;stroke-linejoin:miter;stroke:rgb(0%,0%,100%);stroke-opacity:1;stroke-miterlimit:10;" d="M 138.644531 198.570312 L 147.160156 192.195312 "/>
<path style="fill:none;stroke-width:1.2;stroke-linecap:butt;stroke-linejoin:miter;stroke:rgb(0%,0%,0%);stroke-opacity:1;stroke-miterlimit:10;" d="M 147.160156 192.195312 L 155.671875 185.820312 "/>
<path style=" stroke:none;fill-rule:nonzero;fill:rgb(100%,100%,100%);fill-opacity:1;" d="M 135.644531 193.070312 L 142.644531 193.070312 L 142.644531 204.070312 L 135.644531 204.070312 Z M 135.644531 193.070312 "/>
<g style="fill:rgb(0%,0%,100%);fill-opacity:1;">
  <use xlink:href="#glyph0-3" x="135.644531" y="201.733398"/>
</g>
<path style="fill:none;stroke-width:1.2;stroke-linecap:butt;stroke-linejoin:miter;stroke:rgb(0%,0%,0%);stroke-opacity:1;stroke-miterlimit:10;" d="M 155.671875 185.820312 L 153.148438 164.695312 "/>
<path style="fill:none;stroke-width:1.2;stroke-linecap:butt;stroke-linejoin:miter;stroke:rgb(0%,0%,0%);stroke-opacity:1;stroke-miterlimit:10;" d="M 150.449219 184.304688 L 148.429688 167.402344 "/>
<path style="fill:none;stroke-width:1.2;stroke-linecap:butt;stroke-linejoin:miter;stroke:rgb(0%,0%,0%);stroke-opacity:1;stroke-miterlimit:10;" d="M 167.539062 124.863281 L 174.402344 145 "/>
<path style="fill:none;stroke-width:1.2;stroke-linecap:butt;stroke-linejoin:miter;stroke:rgb(0%,0%,0%);stroke-opacity:1;stroke-miterlimit:10;" d="M 181.546875 108.851562 L 167.539062 124.863281 "/>
<path style="fill:none;stroke-width:1.2;stroke-linecap:butt;stroke-linejoin:miter;stroke:rgb(0%,0%,0%);stroke-opacity:1;stroke-miterlimit:10;" d="M 174.402344 145 L 195.273438 149.125 "/>
<path style="fill:none;stroke-width:1.2;stroke-linecap:butt;stroke-linejoin:miter;stroke:rgb(0%,0%,0%);stroke-opacity:1;stroke-miterlimit:10;" d="M 195.273438 149.125 L 202.277344 141.117188 "/>
<path style="fill:none;stroke-width:1.2;stroke-linecap:butt;stroke-linejoin:miter;stroke:rgb(0%,0%,100%);stroke-opacity:1;stroke-miterlimit:10;" d="M 202.277344 141.117188 L 209.28125 133.113281 "/>
<path style="fill:none;stroke-width:1.2;stroke-linecap:butt;stroke-linejoin:miter;stroke:rgb(0%,0%,100%);stroke-opacity:1;stroke-miterlimit:10;" d="M 209.28125 133.113281 L 205.851562 123.042969 "/>
<path style="fill:none;stroke-width:1.2;stroke-linecap:butt;stroke-linejoin:miter;stroke:rgb(0%,0%,0%);stroke-opacity:1;stroke-miterlimit:10;" d="M 205.851562 123.042969 L 202.417969 112.976562 "/>
<path style="fill:none;stroke-width:1.2;stroke-linecap:butt;stroke-linejoin:miter;stroke:rgb(0%,0%,100%);stroke-opacity:1;stroke-miterlimit:10;" d="M 209.28125 133.113281 L 219.71875 135.175781 "/>
<path style="fill:none;stroke-width:1.2;stroke-linecap:butt;stroke-linejoin:miter;stroke:rgb(0%,0%,0%);stroke-opacity:1;stroke-miterlimit:10;" d="M 219.71875 135.175781 L 230.152344 137.238281 "/>
<path style=" stroke:none;fill-rule:nonzero;fill:rgb(100%,100%,100%);fill-opacity:1;" d="M 206.28125 127.613281 L 213.28125 127.613281 L 213.28125 138.613281 L 206.28125 138.613281 Z M 206.28125 127.613281 "/>
<g style="fill:rgb(0%,0%,100%);fill-opacity:1;">
  <use xlink:href="#glyph0-3" x="206.28125" y="136.276367"/>
</g>
<path style="fill:none;stroke-width:1.2;stroke-linecap:butt;stroke-linejoin:miter;stroke:rgb(0%,0%,0%);stroke-opacity:1;stroke-miterlimit:10;" d="M 202.417969 112.976562 L 181.546875 108.851562 "/>
<path style="fill:none;stroke-width:1.2;stroke-linecap:butt;stroke-linejoin:miter;stroke:rgb(0%,0%,0%);stroke-opacity:1;stroke-miterlimit:10;" d="M 232.035156 138.886719 L 239.039062 130.878906 "/>
<path style="fill:none;stroke-width:1.2;stroke-linecap:butt;stroke-linejoin:miter;stroke:rgb(100%,0%,0%);stroke-opacity:1;stroke-miterlimit:10;" d="M 239.039062 130.878906 L 246.042969 122.875 "/>
<path style="fill:none;stroke-width:1.2;stroke-linecap:butt;stroke-linejoin:miter;stroke:rgb(0%,0%,0%);stroke-opacity:1;stroke-miterlimit:10;" d="M 228.269531 135.589844 L 235.273438 127.582031 "/>
<path style="fill:none;stroke-width:1.2;stroke-linecap:butt;stroke-linejoin:miter;stroke:rgb(100%,0%,0%);stroke-opacity:1;stroke-miterlimit:10;" d="M 235.273438 127.582031 L 242.277344 119.578125 "/>
<path style="fill:none;stroke-width:1.2;stroke-linecap:butt;stroke-linejoin:miter;stroke:rgb(0%,0%,0%);stroke-opacity:1;stroke-miterlimit:10;" d="M 230.152344 137.238281 L 237.015625 157.375 "/>
<path style=" stroke:none;fill-rule:nonzero;fill:rgb(100%,100%,100%);fill-opacity:1;" d="M 240.160156 115.726562 L 248.160156 115.726562 L 248.160156 126.726562 L 240.160156 126.726562 Z M 240.160156 115.726562 "/>
<g style="fill:rgb(100%,0%,0%);fill-opacity:1;">
  <use xlink:href="#glyph0-5" x="240.160156" y="124.389648"/>
</g>
<path style="fill:none;stroke-width:1.2;stroke-linecap:butt;stroke-linejoin:miter;stroke:rgb(0%,0%,0%);stroke-opacity:1;stroke-miterlimit:10;" d="M 237.015625 157.375 L 247.453125 159.4375 "/>
<path style="fill:none;stroke-width:1.2;stroke-linecap:butt;stroke-linejoin:miter;stroke:rgb(100%,0%,0%);stroke-opacity:1;stroke-miterlimit:10;" d="M 247.453125 159.4375 L 257.886719 161.5 "/>
<path style="fill:none;stroke-width:1.2;stroke-linecap:butt;stroke-linejoin:miter;stroke:rgb(100%,0%,0%);stroke-opacity:1;stroke-miterlimit:10;" d="M 257.886719 161.5 L 261.320312 171.570312 "/>
<path style="fill:none;stroke-width:1.2;stroke-linecap:butt;stroke-linejoin:miter;stroke:rgb(0%,0%,0%);stroke-opacity:1;stroke-miterlimit:10;" d="M 261.320312 171.570312 L 264.75 181.636719 "/>
<path style=" stroke:none;fill-rule:nonzero;fill:rgb(100%,100%,100%);fill-opacity:1;" d="M 253.886719 156 L 261.886719 156 L 261.886719 167 L 253.886719 167 Z M 253.886719 156 "/>
<g style="fill:rgb(100%,0%,0%);fill-opacity:1;">
  <use xlink:href="#glyph0-5" x="253.886719" y="164.663086"/>
</g>
</g>
</svg>

<svg xmlns="http://www.w3.org/2000/svg" xmlns:xlink="http://www.w3.org/1999/xlink" width="300pt" height="300pt" viewBox="0 0 300 300"><defs><symbol overflow="visible"><path d="M.453 1.594v-7.938h4.5v7.938zm.5-.5h3.5v-6.938h-3.5zm0 0"/></symbol><symbol overflow="visible" id="a"><path d="M5.797-6.063v.938c-.305-.27-.625-.473-.97-.61-.335-.144-.686-.218-1.06-.218-.75 0-1.33.23-1.736.687-.397.46-.592 1.12-.592 1.985 0 .866.195 1.526.593 1.983.408.46.986.688 1.736.688.375 0 .726-.066 1.062-.203.344-.132.664-.343.97-.625V-.5c-.314.21-.642.367-.986.47-.343.1-.714.155-1.11.155-.99 0-1.772-.3-2.343-.906C.784-1.396.5-2.228.5-3.28c0-1.052.285-1.88.86-2.486.57-.613 1.35-.92 2.343-.92.395-.002.766.053 1.11.155.35.104.68.26.984.468zm0 0"/></symbol><symbol overflow="visible" id="b"><path d="M.844-6.844h.812V0H.844zm0 0"/></symbol><symbol overflow="visible" id="c"><path d="M.89-6.563H2.08l2.906 5.485v-5.484h.86V0H4.656L1.75-5.484V0H.89zm0 0"/></symbol><symbol overflow="visible" id="d"><path d="M.89-6.563h.876v2.688H5v-2.688h.89V0H5v-3.125H1.766V0H.89zm0 0"/></symbol><symbol overflow="visible" id="e"><path d="M3.547-5.953c-.65 0-1.164.242-1.547.72-.375.48-.563 1.13-.563 1.952 0 .835.188 1.49.563 1.967.383.48.898.72 1.547.72.644 0 1.156-.24 1.53-.72.376-.476.564-1.132.564-1.968 0-.822-.187-1.474-.562-1.954-.375-.477-.887-.72-1.53-.72zm0-.734c.914 0 1.648.312 2.203.937.55.617.828 1.438.828 2.47 0 1.042-.277 1.87-.828 2.483-.555.617-1.29.922-2.203.922-.93 0-1.668-.305-2.22-.922C.774-1.41.5-2.237.5-3.28c0-1.033.273-1.853.828-2.47.55-.625 1.29-.938 2.22-.938zm0 0"/></symbol></defs><g><path fill="#fff" d="M0 0h300v300H0z"/><path d="M35.25 160.547l9.656-4.465" stroke-width="1.2" stroke="#0c0" stroke-miterlimit="10" fill="none"/><path d="M44.906 156.082l9.653-4.465" stroke-width="1.2" stroke="#000" stroke-miterlimit="10" fill="none"/><path d="M25.25 155.047h10v11h-10zm0 0" fill="#fff"/><g fill="#0c0"><use xlink:href="#a" x="25.25" y="163.71"/><use xlink:href="#b" x="31.764" y="163.71"/></g><path d="M54.56 151.617l1.92-21.187M59.738 149.95L61.273 133M71.95 163.875l-17.39-12.258M56.48 130.43l19.31-8.93M75.79 121.5l17.39 12.258M74.645 126.816l13.91 9.805M93.18 133.758l-1.922 21.187M93.18 133.758l19.308-8.93M91.258 154.945l-19.31 8.93M87.227 151.293l-15.45 7.144M112.488 124.828l2.063-10.437" stroke-width="1.2" stroke="#000" stroke-miterlimit="10" fill="none"/><path d="M114.55 114.39l2.063-10.433" stroke-width="1.2" stroke="#00f" stroke-miterlimit="10" fill="none"/><path d="M117.813 123.71l1.648-8.35" stroke-width="1.2" stroke="#000" stroke-miterlimit="10" fill="none"/><path d="M119.46 115.36l1.653-8.348" stroke-width="1.2" stroke="#00f" stroke-miterlimit="10" fill="none"/><path d="M131.063 135.2l-18.575-10.372" stroke-width="1.2" stroke="#000" stroke-miterlimit="10" fill="none"/><path d="M116.613 103.957l21.125-2.527" stroke-width="1.2" stroke="#00f" stroke-miterlimit="10" fill="none"/><path d="M113.613 98.457h7v11h-7zm0 0" fill="#fff"/><use xlink:href="#c" x="113.613" y="107.12" fill="#00f"/><path d="M137.738 101.43l4.465 9.652" stroke-width="1.2" stroke="#00f" stroke-miterlimit="10" fill="none"/><path d="M142.203 111.082l4.465 9.656" stroke-width="1.2" stroke="#000" stroke-miterlimit="10" fill="none"/><path d="M130.738 95.93h14v11h-14zm0 0" fill="#fff"/><g fill="#00f"><use xlink:href="#c" x="130.738" y="104.593"/><use xlink:href="#d" x="137.716" y="104.593"/></g><path d="M146.668 120.738l-15.606 14.46M141.707 118.512l-12.484 11.57M146.668 120.738l20.87 4.125M131.063 135.2l2.527 21.124M133.59 156.324l-8.516 6.375" stroke-width="1.2" stroke="#000" stroke-miterlimit="10" fill="none"/><path d="M125.074 162.7l-8.515 6.374" stroke-width="1.2" stroke="#00f" stroke-miterlimit="10" fill="none"/><path d="M134.887 161.605l-6.813 5.102" stroke-width="1.2" stroke="#000" stroke-miterlimit="10" fill="none"/><path d="M128.074 166.707l-6.812 5.098" stroke-width="1.2" stroke="#00f" stroke-miterlimit="10" fill="none"/><path d="M153.148 164.695l-19.558-8.37" stroke-width="1.2" stroke="#000" stroke-miterlimit="10" fill="none"/><path d="M116.56 169.074l1.26 10.563" stroke-width="1.2" stroke="#00f" stroke-miterlimit="10" fill="none"/><path d="M117.82 179.637l1.266 10.562" stroke-width="1.2" stroke="#000" stroke-miterlimit="10" fill="none"/><path d="M113.56 163.574h7v11h-7zm0 0" fill="#fff"/><use xlink:href="#c" x="113.559" y="172.237" fill="#00f"/><path d="M119.086 190.2l9.777 4.183" stroke-width="1.2" stroke="#000" stroke-miterlimit="10" fill="none"/><path d="M128.863 194.383l9.782 4.187" stroke-width="1.2" stroke="#00f" stroke-miterlimit="10" fill="none"/><path d="M123.012 186.434l7.824 3.347" stroke-width="1.2" stroke="#000" stroke-miterlimit="10" fill="none"/><path d="M130.836 189.78l7.82 3.353M138.645 198.57l8.515-6.375" stroke-width="1.2" stroke="#00f" stroke-miterlimit="10" fill="none"/><path d="M147.16 192.195l8.512-6.375" stroke-width="1.2" stroke="#000" stroke-miterlimit="10" fill="none"/><path d="M135.645 193.07h7v11h-7zm0 0" fill="#fff"/><use xlink:href="#c" x="135.645" y="201.733" fill="#00f"/><path d="M155.672 185.82l-2.524-21.125M150.45 184.305l-2.02-16.903M167.54 124.863L174.4 145M181.547 108.852l-14.008 16.01M174.402 145l20.87 4.125M195.273 149.125l7.004-8.008" stroke-width="1.2" stroke="#000" stroke-miterlimit="10" fill="none"/><path d="M202.277 141.117l7.004-8.004M209.28 133.113l-3.428-10.07" stroke-width="1.2" stroke="#00f" stroke-miterlimit="10" fill="none"/><path d="M205.852 123.043l-3.434-10.066" stroke-width="1.2" stroke="#000" stroke-miterlimit="10" fill="none"/><path d="M209.28 133.113l10.44 2.063" stroke-width="1.2" stroke="#00f" stroke-miterlimit="10" fill="none"/><path d="M219.72 135.176l10.432 2.062" stroke-width="1.2" stroke="#000" stroke-miterlimit="10" fill="none"/><path d="M206.28 127.613h7v11h-7zm0 0" fill="#fff"/><use xlink:href="#c" x="206.281" y="136.276" fill="#00f"/><path d="M202.418 112.977l-20.87-4.125M232.035 138.887l7.004-8.008" stroke-width="1.2" stroke="#000" stroke-miterlimit="10" fill="none"/><path d="M239.04 130.88l7.003-8.005" stroke-width="1.2" stroke="#f00" stroke-miterlimit="10" fill="none"/><path d="M228.27 135.59l7.003-8.008" stroke-width="1.2" stroke="#000" stroke-miterlimit="10" fill="none"/><path d="M235.273 127.582l7.004-8.004" stroke-width="1.2" stroke="#f00" stroke-miterlimit="10" fill="none"/><path d="M230.152 137.238l6.864 20.137" stroke-width="1.2" stroke="#000" stroke-miterlimit="10" fill="none"/><path d="M240.16 115.727h8v11h-8zm0 0" fill="#fff"/><use xlink:href="#e" x="240.16" y="124.39" fill="#f00"/><path d="M237.016 157.375l10.437 2.063" stroke-width="1.2" stroke="#000" stroke-miterlimit="10" fill="none"/><path d="M247.453 159.438l10.434 2.062M257.887 161.5l3.433 10.07" stroke-width="1.2" stroke="#f00" stroke-miterlimit="10" fill="none"/><path d="M261.32 171.57l3.43 10.067" stroke-width="1.2" stroke="#000" stroke-miterlimit="10" fill="none"/><path d="M253.887 156h8v11h-8zm0 0" fill="#fff"/><use xlink:href="#e" x="253.887" y="164.663" fill="#f00"/></g></svg>
